public/art/floors/grass-1.svg

<svg xmlns="http://www.w3.org/2000/svg" width="32" height="32" shape-rendering="crispEdges" viewBox="0 -0.5 16 16"><path stroke="#6bb282" d="M0 0h1m1 0h7m1 0h6M0 1h3m1 0h2m1 0h4m1 0h2m1 0h1M0 2h16M0 3h1m1 0h5m1 0h1m1 0h5M0 4h4m1 0h7m1 0h3M0 5h2m1 0h7m1 0h5M1 6h5m1 0h1m1 0h5m1 0h1M0 7h3m1 0h7m1 0h4M0 8h1m1 0h7m1 0h6M0 9h3m1 0h2m1 0h4m1 0h2m1 0h1M0 10h16M0 11h1m1 0h5m1 0h1m1 0h5M0 12h4m1 0h7m1 0h3M0 13h2m1 0h7m1 0h5M1 14h5m1 0h1m1 0h5m1 0h1M0 15h3m1 0h7m1 0h4"/><path stroke="#72bf98" d="M1 0h1m7 0h1M1 3h1m5 0h1m1 0h1m5 0h1M4 4h1m7 0h1M0 6h1m7 0h1M3 7h1m7 0h1M1 8h1m7 0h1m-9 3h1m5 0h1m1 0h1m5 0h1M4 12h1m7 0h1M0 14h1m7 0h1m-6 1h1m7 0h1"/><path stroke="#44aa76" d="M3 1h1m2 0h1m4 0h1m2 0h1M2 5h1m7 0h1M6 6h1m7 0h1M3 9h1m2 0h1m4 0h1m2 0h1M2 13h1m7 0h1m-5 1h1m7 0h1"/></svg>

<svg xmlns="http://www.w3.org/2000/svg" width="32" height="32" viewBox="0 -0.5 16 16" shape-rendering="crispEdges">
<path stroke="#6bb282" d="M0 0h1M2 0h7M10 0h6M0 1h3M4 1h2M7 1h4M12 1h2M15 1h1M0 2h16M0 3h1M2 3h5M8 3h1M10 3h5M0 4h4M5 4h7M13 4h3M0 5h2M3 5h7M11 5h5M1 6h5M7 6h1M9 6h5M15 6h1M0 7h3M4 7h7M12 7h4M0 8h1M2 8h7M10 8h6M0 9h3M4 9h2M7 9h4M12 9h2M15 9h1M0 10h16M0 11h1M2 11h5M8 11h1M10 11h5M0 12h4M5 12h7M13 12h3M0 13h2M3 13h7M11 13h5M1 14h5M7 14h1M9 14h5M15 14h1M0 15h3M4 15h7M12 15h4" />
<path stroke="#72bf98" d="M1 0h1M9 0h1M1 3h1M7 3h1M9 3h1M15 3h1M4 4h1M12 4h1M0 6h1M8 6h1M3 7h1M11 7h1M1 8h1M9 8h1M1 11h1M7 11h1M9 11h1M15 11h1M4 12h1M12 12h1M0 14h1M8 14h1M3 15h1M11 15h1" />
<path stroke="#44aa76" d="M3 1h1M6 1h1M11 1h1M14 1h1M2 5h1M10 5h1M6 6h1M14 6h1M3 9h1M6 9h1M11 9h1M14 9h1M2 13h1M10 13h1M6 14h1M14 14h1" />
</svg>
